img/itunes.svg

<?xml version="1.0" encoding="UTF-8"?>
<svg width="20px" height="20px" viewBox="0 0 20 20" version="1.1" xmlns="http://www.w3.org/2000/svg" xmlns:xlink="http://www.w3.org/1999/xlink">
    <!-- Generator: Sketch 55.2 (78181) - https://sketchapp.com -->
    <title>icons8-itunes</title>
    <desc>Created with Sketch.</desc>
    <g id="Homepage" stroke="none" stroke-width="1" fill="none" fill-rule="evenodd">
        <g id="Tablet---All-Nav-Options" transform="translate(-290.000000, -70.000000)" fill="#031268" fill-rule="nonzero">
            <g id="icons8-itunes" transform="translate(290.000000, 70.000000)">
                <path d="M10,0 C4.48583333,0 0,4.48583333 0,10 C0,15.5141667 4.48583333,20 10,20 C15.5141667,20 20,15.5141667 20,10 C20,4.48583333 15.5141667,0 10,0 Z M14.1666667,12.5825 C14.1666667,13.29 13.5958333,14.1666667 12.2925,14.1666667 C11.1283333,14.1666667 10.835,13.4208333 10.835,12.9166667 C10.835,12.2975 11.2083333,11.6641667 12.2941667,11.6641667 C13.2775,11.6641667 13.3341667,11.4141667 13.3341667,10.9183333 L13.3341667,7.52833333 L7.50083333,8.17666667 C7.50083333,10.0775 7.50083333,13.13 7.50083333,13.415 C7.5,14.1233333 6.92916667,15 5.62583333,15 C4.46166667,15 4.16833333,14.2541667 4.16833333,13.75 C4.16833333,13.1308333 4.54166667,12.4975 5.6275,12.4975 C6.61083333,12.4975 6.6675,12.2475 6.6675,11.7516667 L6.6675,6.25416667 C6.6675,5.97833333 6.875,5.74666667 7.14916667,5.71583333 L13.5658333,5.0025 C13.8858333,4.9675 14.1666667,5.21916667 14.1666667,5.54166667 C14.1666667,5.54166667 14.1666667,12.3016667 14.1666667,12.5825 Z" id="Shape"></path>
            </g>
        </g>
    </g>
</svg>

<svg width="20" height="20" xmlns="http://www.w3.org/2000/svg"><path d="M10 0C4.486 0 0 4.486 0 10s4.486 10 10 10 10-4.486 10-10S15.514 0 10 0zm4.167 12.582c0 .708-.571 1.585-1.874 1.585-1.165 0-1.458-.746-1.458-1.25 0-.62.373-1.253 1.46-1.253.982 0 1.04-.25 1.04-.746v-3.39L7.5 8.177v5.238C7.5 14.123 6.929 15 5.626 15c-1.164 0-1.458-.746-1.458-1.25 0-.62.374-1.252 1.46-1.252.983 0 1.04-.25 1.04-.746V6.254c0-.276.207-.507.481-.538l6.417-.713c.32-.035.6.216.6.539v7.04z" fill="#031268"/></svg>
